X:18205
T:Valse à René - Valse/Walzer/Waltz
C:traditionell
Z:abc transcription Simon Wascher
N:please mail errors to simon.wascher@chello.at
M:3/4
L:1/4
K:D
ADE|F2E|DFB|A3|
BEF|GBA|GFE|F2D|
ADE|F2E|DFB|A3|
BEF|GBA|GFE|1D3:|2D2A||
|:AF/A/F/A/|AF/A/F/A/|d^cB|E2G|
GE/G/E/G/|GE/G/E/G/|^cBA|F2A|
AF/A/F/A/|AF/A/F/A/|d^cB|e3|
EGB|ABA|GFE|D3:|


